X: 29441
T: Night Cap, The
R: jig
M: 6/8
K: Dmajor
G/A/|:Bcd d2c|Bcd dBG|cee e2d|cee ecA|
Bdd d2c|Bdd dBG|GBd e2d|gBG A2G:|
|:BGG dGG|BGB dcB|cAA eAA|cAe edc|
BGG dGG|BGB dBG|GBd e2d|gBG A2G:|
D|:FAA A2 D|FAA AFD|GBB B2 D|GBB dBA|
FAA A2 D|FAA AFD|FAA d2 B|AFF E2 D:|
FED ADD|BAF ADD|FED ADD|BAG FED|
FED ADD|BAF ADD|FAA d2 B|AFF E2 D:|

